X:7
T:Lady Margaret Stewart
R:reel
O:18th century Scotland
D:Highland Classic, Carl MacKenzie, 2007
S:http://www.cranfordpub.com/recordings/carl.htm
Z:psc -  http://www.cranfordpub.com
L:1/8
Q:333
M:C|
K:Bdor
b|f2 Bf dBfB|(f/g/a) ea cAec|f2 Bf dBfd|ecac B/B/B B:|
||A|FBBc dBcA|EAAB cdeE|FBBc dBcb|afec B/B/B Bb|
fBdB FBdf|eAcA EAce|dcdb cBca|fdec B/B/B B|]
